X:12036
T:Long Odds
R:Reel
C:Trad.
O:England
Z:Paul Hardy's Session Tunebook 2022 (see www.paulhardy.net). Creative Commons cc by-nc-sa licenced.
M:4/4
L:1/8
Q:1/4=120
K:G
D|"G"DG GA B2BG|"C"c2cA "D"BGFE|"G"DG GA BGBd|"C"ecAG "D"GFED|
"G"DG GA B2BG|"C"c2cA "D"BGFE|"G"DG GA BGBd|"D7"ecA F "G"G3:|
|:z|"Em"eg fe e2dB|"Am"ce dc "G"c2B2|"Am"ABcA "G"Bcd2|"C"ecAG "D"GFED|
"Em"eg fe e2dB|"Am"ce dc "G"c2B2|"Am"ABcA "G"Bcd2|"D7"ecA F "G"G3:|

